X: 100261
T: LES FARCEURS VALSE #2
C: Par J. J. Hoglen, Edinburgh
R: waltz
B: K\"ohler's Violin Repository, v.3, 1885 p.198
F: http://www.archive.org/details/klersviolinrepos03rugg
Z: 2012 John Chambers <jc:trillian.mit.edu>
M: 3/4
L: 1/8
K: G
[|\
v[D2d2] [G2g2] [G2g2] | [G2g2] [F2f2] "_2nd times 8ves."[E2e2] | [D2d2] [c2c'2] [c2c'2] | [c2c'2] [B2b2] [A2a2] |\
[G2g2] [e2e'2] [e2e'2] | [e2e'2] [d2d'2] [c2c'2] | [B2b2] [c2c'2] [A2a2] | [G2g2] [F2f2] [E2e2] |
[D2d2] v[G2g2] [G2g2] | [G2g2] [F2f2] [E2e2] | [D2d2] [c2c'2] [c2c'2] | [c2c'2] [B2b2] [A2a2] |\
[G2g2] [e2e'2] [e2e'2] | [e2e'2] [d2d'2] [B2b2] | [c2c'2] [A2a2] [F2f2] | [G6g6] H:|
vG2 (.g2 .g2) | G2 (.g2 .g2) | G2 (.g2 .g2) | f2 (e2 d2) |\
G2 (.e2 .e2) | G2 (.e2 .e2) | G2 (.e2 .e2) | c2 (A2 F2) |
G2 (.g2 .g2) | G2 (.g2 .g2) | G2 (.g2 .g2) | f2 (e2 d2) |\
^c2 d2 e2 | f2 g2 f2 |[1 e2 f2 ^d2 | (e4 =d2) :|2 e2 c2 A2 | F2 D2 C2 "_D.C."|]

%%sep 2 1 500

